X:2
T:Sheet 2 — Modal Drift
T:(Sus voicings)
M:4/4
L:1/4
K:Eb
%%score {1 2}
V:1 clef=treble name="RH"
V:2 clef=bass name="LH"
[V:1] "^①s2"[EFB] "^②s2"[FGc] "^④s2"[A,B,E] "^⑤s2"[B,CF] |
[V:2] "_124"[E,F,B,] "_224"[F,G,C] "_424"[A,,B,,E,] "_524"[B,,C,F,] |
[V:1] "^⑥s2"[CDG] "^①s4"[EAB] "^②s4"[FBc] "^③s4"[G,CD] |
[V:2] "_624"[C,D,G,] "_142"[E,A,B,] "_242"[F,B,C] "_342"[G,,C,D,] |
[V:1] "^⑤s4"[B,EF] "^⑥s4"[CFG] "^①s4+8"[EABe] "^②s4+8"[F,B,CF] |
[V:2] "_542"[B,,E,F,] "_642"[C,F,G,] "_1424"[E,,A,,B,,E,] "_2424"[F,,B,,C,F,] |
[V:1] "^⑤s4+8"[Befb] z z z |
[V:2] "_5424"[B,,E,F,B,] z z z |

